static/img/kroki/d4a01ef1bdd9434513b12722510a2a73.svg

<?xml version="1.0" encoding="us-ascii" standalone="no"?><svg xmlns="http://www.w3.org/2000/svg" xmlns:xlink="http://www.w3.org/1999/xlink" contentStyleType="text/css" height="1140px" preserveAspectRatio="none" style="width:442px;height:1140px;" version="1.1" viewBox="0 0 442 1140" width="442px" zoomAndPan="magnify"><defs/><g><!--class kubernetes_flow_schema--><g id="elem_kubernetes_flow_schema"><rect codeLine="22" fill="#3D176E" height="74.0859" id="kubernetes_flow_schema" rx="2.5" ry="2.5" style="stroke:#000D19;stroke-width:0.5;" width="415" x="13.5" y="686.43"/><ellipse cx="105.75" cy="706.3245" fill="#ADD1B2" rx="11" ry="11" style="stroke:#181818;stroke-width:1.0;"/><path d="M108.7188,711.9652 Q108.1406,712.262 107.5,712.4027 Q106.8594,712.5589 106.1563,712.5589 Q103.6563,712.5589 102.3281,710.9183 Q101.0156,709.262 101.0156,706.137 Q101.0156,703.012 102.3281,701.3558 Q103.6563,699.6995 106.1563,699.6995 Q106.8594,699.6995 107.5,699.8558 Q108.1563,700.012 108.7188,700.3089 L108.7188,703.0277 Q108.0938,702.4495 107.5,702.1839 Q106.9063,701.9027 106.2813,701.9027 Q104.9375,701.9027 104.25,702.9808 Q103.5625,704.0433 103.5625,706.137 Q103.5625,708.2308 104.25,709.3089 Q104.9375,710.3714 106.2813,710.3714 Q106.9063,710.3714 107.5,710.1058 Q108.0938,709.8245 108.7188,709.2464 L108.7188,711.9652 Z " fill="#000000"/><text fill="#D9B8FF" font-family="Helvetica" font-size="17" lengthAdjust="spacing" textLength="212" x="131.25" y="712.2098">kubernetes_flow_schema</text><line style="stroke:#000D19;stroke-width:0.5;" x1="14.5" x2="427.5" y1="726.2191" y2="726.2191"/><text fill="#D9B8FF" font-family="sans-serif" font-size="14" font-weight="bold" lengthAdjust="spacing" textLength="158" x="24.5" y="748.2142">flow_schema_status</text><text fill="#D9B8FF" font-family="sans-serif" font-size="14" lengthAdjust="spacing" textLength="235" x="182.5" y="748.2142">: kubernetes_flow_schema_status</text></g><!--class kubernetes_flow_schema_status--><g id="elem_kubernetes_flow_schema_status"><rect codeLine="25" fill="#3D176E" height="74.0859" id="kubernetes_flow_schema_status" rx="2.5" ry="2.5" style="stroke:#000D19;stroke-width:0.5;" width="428" x="7" y="820.52"/><ellipse cx="75.75" cy="840.4145" fill="#ADD1B2" rx="11" ry="11" style="stroke:#181818;stroke-width:1.0;"/><path d="M78.7188,846.0552 Q78.1406,846.352 77.5,846.4927 Q76.8594,846.6489 76.1563,846.6489 Q73.6563,846.6489 72.3281,845.0083 Q71.0156,843.352 71.0156,840.227 Q71.0156,837.102 72.3281,835.4458 Q73.6563,833.7895 76.1563,833.7895 Q76.8594,833.7895 77.5,833.9458 Q78.1563,834.102 78.7188,834.3989 L78.7188,837.1177 Q78.0938,836.5395 77.5,836.2739 Q76.9063,835.9927 76.2813,835.9927 Q74.9375,835.9927 74.25,837.0708 Q73.5625,838.1333 73.5625,840.227 Q73.5625,842.3208 74.25,843.3989 Q74.9375,844.4614 76.2813,844.4614 Q76.9063,844.4614 77.5,844.1958 Q78.0938,843.9145 78.7188,843.3364 L78.7188,846.0552 Z " fill="#000000"/><text fill="#D9B8FF" font-family="Helvetica" font-size="17" lengthAdjust="spacing" textLength="272" x="101.25" y="846.2998">kubernetes_flow_schema_status</text><line style="stroke:#000D19;stroke-width:0.5;" x1="8" x2="434" y1="860.3091" y2="860.3091"/><text fill="#D9B8FF" font-family="sans-serif" font-size="14" font-weight="bold" lengthAdjust="spacing" textLength="82" x="18" y="882.3042">conditions</text><text fill="#D9B8FF" font-family="sans-serif" font-size="14" lengthAdjust="spacing" textLength="324" x="100" y="882.3042">: kubernetes_flow_schema_status_conditions[]</text></g><!--class kubernetes_flow_schema_status_conditions--><g id="elem_kubernetes_flow_schema_status_conditions"><rect codeLine="28" fill="#3D176E" height="179.2734" id="kubernetes_flow_schema_status_conditions" rx="2.5" ry="2.5" style="stroke:#000D19;stroke-width:0.5;" width="408" x="17" y="954.61"/><ellipse cx="32" cy="974.5045" fill="#ADD1B2" rx="11" ry="11" style="stroke:#181818;stroke-width:1.0;"/><path d="M34.9688,980.1452 Q34.3906,980.442 33.75,980.5827 Q33.1094,980.7389 32.4063,980.7389 Q29.9063,980.7389 28.5781,979.0983 Q27.2656,977.442 27.2656,974.317 Q27.2656,971.192 28.5781,969.5358 Q29.9063,967.8795 32.4063,967.8795 Q33.1094,967.8795 33.75,968.0358 Q34.4063,968.192 34.9688,968.4889 L34.9688,971.2077 Q34.3438,970.6295 33.75,970.3639 Q33.1563,970.0827 32.5313,970.0827 Q31.1875,970.0827 30.5,971.1608 Q29.8125,972.2233 29.8125,974.317 Q29.8125,976.4108 30.5,977.4889 Q31.1875,978.5514 32.5313,978.5514 Q33.1563,978.5514 33.75,978.2858 Q34.3438,978.0045 34.9688,977.4264 L34.9688,980.1452 Z " fill="#000000"/><text fill="#D9B8FF" font-family="Helvetica" font-size="17" lengthAdjust="spacing" textLength="366" x="51" y="980.3898">kubernetes_flow_schema_status_conditions</text><line style="stroke:#000D19;stroke-width:0.5;" x1="18" x2="424" y1="994.3991" y2="994.3991"/><text fill="#D9B8FF" font-family="sans-serif" font-size="14" font-weight="bold" lengthAdjust="spacing" textLength="151" x="28" y="1016.3942">last_transition_time</text><text fill="#D9B8FF" font-family="sans-serif" font-size="14" lengthAdjust="spacing" textLength="70" x="179" y="1016.3942">: datetime</text><text fill="#D9B8FF" font-family="sans-serif" font-size="14" font-weight="bold" lengthAdjust="spacing" textLength="71" x="28" y="1042.6911">message</text><text fill="#D9B8FF" font-family="sans-serif" font-size="14" lengthAdjust="spacing" textLength="48" x="99" y="1042.6911">: string</text><text fill="#D9B8FF" font-family="sans-serif" font-size="14" font-weight="bold" lengthAdjust="spacing" textLength="55" x="28" y="1068.9879">reason</text><text fill="#D9B8FF" font-family="sans-serif" font-size="14" lengthAdjust="spacing" textLength="48" x="83" y="1068.9879">: string</text><text fill="#D9B8FF" font-family="sans-serif" font-size="14" font-weight="bold" lengthAdjust="spacing" textLength="49" x="28" y="1095.2848">status</text><text fill="#D9B8FF" font-family="sans-serif" font-size="14" lengthAdjust="spacing" textLength="48" x="77" y="1095.2848">: string</text><text fill="#D9B8FF" font-family="sans-serif" font-size="14" font-weight="bold" lengthAdjust="spacing" textLength="35" x="28" y="1121.5817">type</text><text fill="#D9B8FF" font-family="sans-serif" font-size="14" lengthAdjust="spacing" textLength="48" x="63" y="1121.5817">: string</text></g><!--class kubernetes_resource--><g id="elem_kubernetes_resource"><rect codeLine="35" fill="#3D176E" height="126.6797" id="kubernetes_resource" rx="2.5" ry="2.5" style="stroke:#000D19;stroke-width:0.5;" width="239" x="101.5" y="438.76"/><ellipse cx="126.85" cy="458.6545" fill="#ADD1B2" rx="11" ry="11" style="stroke:#181818;stroke-width:1.0;"/><path d="M129.8188,464.2952 Q129.2406,464.592 128.6,464.7327 Q127.9594,464.8889 127.2563,464.8889 Q124.7563,464.8889 123.4281,463.2483 Q122.1156,461.592 122.1156,458.467 Q122.1156,455.342 123.4281,453.6858 Q124.7563,452.0295 127.2563,452.0295 Q127.9594,452.0295 128.6,452.1858 Q129.2563,452.342 129.8188,452.6389 L129.8188,455.3577 Q129.1938,454.7795 128.6,454.5139 Q128.0063,454.2327 127.3813,454.2327 Q126.0375,454.2327 125.35,455.3108 Q124.6625,456.3733 124.6625,458.467 Q124.6625,460.5608 125.35,461.6389 Q126.0375,462.7014 127.3813,462.7014 Q128.0063,462.7014 128.6,462.4358 Q129.1938,462.1545 129.8188,461.5764 L129.8188,464.2952 Z " fill="#000000"/><text fill="#D9B8FF" font-family="Helvetica" font-size="17" lengthAdjust="spacing" textLength="174" x="148.15" y="464.5398">kubernetes_resource</text><line style="stroke:#000D19;stroke-width:0.5;" x1="102.5" x2="339.5" y1="478.5491" y2="478.5491"/><text fill="#D9B8FF" font-family="sans-serif" font-size="14" font-weight="bold" lengthAdjust="spacing" textLength="46" x="112.5" y="500.5442">labels</text><text fill="#D9B8FF" font-family="sans-serif" font-size="14" lengthAdjust="spacing" textLength="171" x="158.5" y="500.5442">: dictionary[string, string]</text><text fill="#D9B8FF" font-family="sans-serif" font-size="14" font-weight="bold" lengthAdjust="spacing" textLength="90" x="112.5" y="526.8411">namespace</text><text fill="#D9B8FF" font-family="sans-serif" font-size="14" lengthAdjust="spacing" textLength="48" x="202.5" y="526.8411">: string</text><text fill="#D9B8FF" font-family="sans-serif" font-size="14" font-weight="bold" lengthAdjust="spacing" textLength="138" x="112.5" y="553.1379">resource_version</text><text fill="#D9B8FF" font-family="sans-serif" font-size="14" lengthAdjust="spacing" textLength="48" x="250.5" y="553.1379">: string</text></g><!--class resource--><g id="elem_resource"><rect codeLine="40" fill="#3D176E" height="310.7578" id="resource" rx="2.5" ry="2.5" style="stroke:#000D19;stroke-width:0.5;" width="227" x="107.5" y="7"/><ellipse cx="176.25" cy="26.8945" fill="#ADD1B2" rx="11" ry="11" style="stroke:#181818;stroke-width:1.0;"/><path d="M179.2188,32.5352 Q178.6406,32.832 178,32.9727 Q177.3594,33.1289 176.6563,33.1289 Q174.1563,33.1289 172.8281,31.4883 Q171.5156,29.832 171.5156,26.707 Q171.5156,23.582 172.8281,21.9258 Q174.1563,20.2695 176.6563,20.2695 Q177.3594,20.2695 178,20.4258 Q178.6563,20.582 179.2188,20.8789 L179.2188,23.5977 Q178.5938,23.0195 178,22.7539 Q177.4063,22.4727 176.7813,22.4727 Q175.4375,22.4727 174.75,23.5508 Q174.0625,24.6133 174.0625,26.707 Q174.0625,28.8008 174.75,29.8789 Q175.4375,30.9414 176.7813,30.9414 Q177.4063,30.9414 178,30.6758 Q178.5938,30.3945 179.2188,29.8164 L179.2188,32.5352 Z " fill="#000000"/><text fill="#D9B8FF" font-family="Helvetica" font-size="17" lengthAdjust="spacing" textLength="71" x="201.75" y="32.7798">resource</text><line style="stroke:#000D19;stroke-width:0.5;" x1="108.5" x2="333.5" y1="46.7891" y2="46.7891"/><text fill="#D9B8FF" font-family="sans-serif" font-size="14" font-weight="bold" lengthAdjust="spacing" textLength="29" x="118.5" y="68.7842">age</text><text fill="#D9B8FF" font-family="sans-serif" font-size="14" lengthAdjust="spacing" textLength="66" x="147.5" y="68.7842">: duration</text><text fill="#D9B8FF" font-family="sans-serif" font-size="14" font-weight="bold" lengthAdjust="spacing" textLength="43" x="118.5" y="95.0811">atime</text><text fill="#D9B8FF" font-family="sans-serif" font-size="14" lengthAdjust="spacing" textLength="70" x="161.5" y="95.0811">: datetime</text><text fill="#D9B8FF" font-family="sans-serif" font-size="14" font-weight="bold" lengthAdjust="spacing" textLength="43" x="118.5" y="121.3779">ctime</text><text fill="#D9B8FF" font-family="sans-serif" font-size="14" lengthAdjust="spacing" textLength="70" x="161.5" y="121.3779">: datetime</text><text fill="#D9B8FF" font-family="sans-serif" font-size="14" font-weight="bold" lengthAdjust="spacing" textLength="14" x="118.5" y="147.6748">id</text><text fill="#D9B8FF" font-family="sans-serif" font-size="14" lengthAdjust="spacing" textLength="48" x="132.5" y="147.6748">: string</text><text fill="#D9B8FF" font-family="sans-serif" font-size="14" font-weight="bold" lengthAdjust="spacing" textLength="33" x="118.5" y="173.9717">kind</text><text fill="#D9B8FF" font-family="sans-serif" font-size="14" lengthAdjust="spacing" textLength="48" x="151.5" y="173.9717">: string</text><text fill="#D9B8FF" font-family="sans-serif" font-size="14" font-weight="bold" lengthAdjust="spacing" textLength="90" x="118.5" y="200.2686">last_access</text><text fill="#D9B8FF" font-family="sans-serif" font-size="14" lengthAdjust="spacing" textLength="66" x="208.5" y="200.2686">: duration</text><text fill="#D9B8FF" font-family="sans-serif" font-size="14" font-weight="bold" lengthAdjust="spacing" textLength="90" x="118.5" y="226.5654">last_update</text><text fill="#D9B8FF" font-family="sans-serif" font-size="14" lengthAdjust="spacing" textLength="66" x="208.5" y="226.5654">: duration</text><text fill="#D9B8FF" font-family="sans-serif" font-size="14" font-weight="bold" lengthAdjust="spacing" textLength="48" x="118.5" y="252.8623">mtime</text><text fill="#D9B8FF" font-family="sans-serif" font-size="14" lengthAdjust="spacing" textLength="70" x="166.5" y="252.8623">: datetime</text><text fill="#D9B8FF" font-family="sans-serif" font-size="14" font-weight="bold" lengthAdjust="spacing" textLength="43" x="118.5" y="279.1592">name</text><text fill="#D9B8FF" font-family="sans-serif" font-size="14" lengthAdjust="spacing" textLength="48" x="161.5" y="279.1592">: string</text><text fill="#D9B8FF" font-family="sans-serif" font-size="14" font-weight="bold" lengthAdjust="spacing" textLength="34" x="118.5" y="305.4561">tags</text><text fill="#D9B8FF" font-family="sans-serif" font-size="14" lengthAdjust="spacing" textLength="171" x="152.5" y="305.4561">: dictionary[string, string]</text></g><!--link kubernetes_flow_schema to kubernetes_flow_schema_status--><g id="link_kubernetes_flow_schema_kubernetes_flow_schema_status"><path codeLine="52" d="M221,760.92 C221,779.4 221,795.78 221,814.24 " fill="none" id="kubernetes_flow_schema-to-kubernetes_flow_schema_status" style="stroke:#FFAF37;stroke-width:2.0;"/><polygon fill="#FFAF37" points="221,820.24,225,811.24,221,815.24,217,811.24,221,820.24" style="stroke:#FFAF37;stroke-width:2.0;"/></g><!--reverse link kubernetes_resource to kubernetes_flow_schema--><g id="link_kubernetes_resource_kubernetes_flow_schema"><path codeLine="53" d="M221,583.67 C221,622.68 221,653.5 221,686.21 " fill="none" id="kubernetes_resource-backto-kubernetes_flow_schema" style="stroke:#FFAF37;stroke-width:2.0;"/><polygon fill="none" points="221,565.67,215,583.67,227,583.67,221,565.67" style="stroke:#FFAF37;stroke-width:2.0;"/></g><!--link kubernetes_flow_schema_status to kubernetes_flow_schema_status_conditions--><g id="link_kubernetes_flow_schema_status_kubernetes_flow_schema_status_conditions"><path codeLine="54" d="M221,895.05 C221,912.18 221,927.43 221,948.43 " fill="none" id="kubernetes_flow_schema_status-to-kubernetes_flow_schema_status_conditions" style="stroke:#FFAF37;stroke-width:2.0;"/><polygon fill="#FFAF37" points="221,954.43,225,945.43,221,949.43,217,945.43,221,954.43" style="stroke:#FFAF37;stroke-width:2.0;"/></g><!--reverse link resource to kubernetes_resource--><g id="link_resource_kubernetes_resource"><path codeLine="55" d="M221,335.9 C221,378.46 221,404.23 221,438.32 " fill="none" id="resource-backto-kubernetes_resource" style="stroke:#FFAF37;stroke-width:2.0;"/><polygon fill="none" points="221,317.9,215,335.9,227,335.9,221,317.9" style="stroke:#FFAF37;stroke-width:2.0;"/></g><!--SRC=[ZLHTQnin47o_No78c-c1tT0w3gMG6ahx4ahJjn2EjRHt5Zv9HjgBSTlyzqhdSwBxylNDdfsTcLsll9K26Qez7Pb2jK7h4hUJUWyM5BkprXpMfZIMNUKvvDVBRl6hqJH9k0U5x1kMpqYIGvVnQolvJgDpx7rK-W9yLrXJQN6I9mlQ-H9gYbZh4fox8x9oKn56OSHgSvFdNMPNzEfQB9OViKSpLg1jAFFvN2nMNSgarSMvNnaFyZUoHRoqUqFOYzcpg5aNKmP65B8twBa-cl47225rmJv4sCzJ9glHjl27BGXp2EmSIXVRE4ABXevxNFUcmjMDo9U3vEzZP1usntQLFrIDX2xBItF87D-Y0lOdcSsYxvaZeChDPhSZ3GqXURaesx1gTMwqa2IDdbRDthYFJ_zd4RNKRhw3ilhmQp0ZgJ3u2Y0Cdpr5-NS3HOqw_mfquJ6Bu8nkGM-RU8N2cYDW8A15PohBiScomR9M49A7D62FZwVUTut6awTfVqx-cV9kefDIzkp_NsGhszctPTPC92eBmIeW0xFp0KoAbh4_hJPGhnGuzslhEDILQX-qEXKru1FcRAyJYgdjl2GZTvkcdoSkTEXN-VGtJTEHlkJoAKyQHfUOZ1kUA_y0]--></g></svg>

<svg xmlns="http://www.w3.org/2000/svg" width="442" height="1140" viewBox="0 0 442 1140"><rect width="415" height="74.086" x="13.5" y="686.43" fill="#3D176E" rx="2.5" ry="2.5" style="stroke:#000d19;stroke-width:.5"/><circle cx="105.75" cy="706.324" r="11" fill="#ADD1B2" style="stroke:#181818;stroke-width:1"/><path d="M108.719 711.965q-.578.297-1.219.438-.64.156-1.344.156-2.5 0-3.828-1.64-1.312-1.657-1.312-4.782t1.312-4.781q1.328-1.657 3.828-1.657.703 0 1.344.157.656.156 1.219.453v2.719q-.625-.579-1.219-.844-.594-.281-1.219-.281-1.344 0-2.031 1.078-.687 1.062-.687 3.156t.687 3.172q.688 1.062 2.031 1.062.625 0 1.219-.265.594-.282 1.219-.86z"/><text x="131.25" y="712.21" fill="#D9B8FF" font-family="Helvetica" font-size="17" textLength="212">kubernetes_flow_schema</text><path d="M14.5 726.219h413" style="stroke:#000d19;stroke-width:.5"/><text x="24.5" y="748.214" fill="#D9B8FF" font-family="sans-serif" font-size="14" font-weight="bold" textLength="158">flow_schema_status</text><text x="182.5" y="748.214" fill="#D9B8FF" font-family="sans-serif" font-size="14" textLength="235">: kubernetes_flow_schema_status</text><rect width="428" height="74.086" x="7" y="820.52" fill="#3D176E" rx="2.5" ry="2.5" style="stroke:#000d19;stroke-width:.5"/><circle cx="75.75" cy="840.414" r="11" fill="#ADD1B2" style="stroke:#181818;stroke-width:1"/><path d="M78.719 846.055q-.578.297-1.219.438-.64.156-1.344.156-2.5 0-3.828-1.64-1.312-1.657-1.312-4.782t1.312-4.781q1.328-1.657 3.828-1.657.703 0 1.344.157.656.156 1.219.453v2.719q-.625-.579-1.219-.844-.594-.281-1.219-.281-1.344 0-2.031 1.078-.687 1.062-.687 3.156t.687 3.172q.688 1.062 2.031 1.062.625 0 1.219-.265.594-.282 1.219-.86z"/><text x="101.25" y="846.3" fill="#D9B8FF" font-family="Helvetica" font-size="17" textLength="272">kubernetes_flow_schema_status</text><path d="M8 860.309h426" style="stroke:#000d19;stroke-width:.5"/><text x="18" y="882.304" fill="#D9B8FF" font-family="sans-serif" font-size="14" font-weight="bold" textLength="82">conditions</text><text x="100" y="882.304" fill="#D9B8FF" font-family="sans-serif" font-size="14" textLength="324">: kubernetes_flow_schema_status_conditions[]</text><rect width="408" height="179.273" x="17" y="954.61" fill="#3D176E" rx="2.5" ry="2.5" style="stroke:#000d19;stroke-width:.5"/><circle cx="32" cy="974.505" r="11" fill="#ADD1B2" style="stroke:#181818;stroke-width:1"/><path d="M34.969 980.145q-.578.297-1.219.438-.64.156-1.344.156-2.5 0-3.828-1.64-1.312-1.657-1.312-4.782t1.312-4.781q1.328-1.656 3.828-1.656.703 0 1.344.156.656.156 1.219.453v2.719q-.625-.578-1.219-.844-.594-.281-1.219-.281-1.343 0-2.031 1.078-.687 1.062-.687 3.156t.687 3.172q.688 1.062 2.031 1.062.625 0 1.219-.265.594-.281 1.219-.86z"/><text x="51" y="980.39" fill="#D9B8FF" font-family="Helvetica" font-size="17" textLength="366">kubernetes_flow_schema_status_conditions</text><path d="M18 994.399h406" style="stroke:#000d19;stroke-width:.5"/><text x="28" y="1016.394" fill="#D9B8FF" font-family="sans-serif" font-size="14" font-weight="bold" textLength="151">last_transition_time</text><text x="179" y="1016.394" fill="#D9B8FF" font-family="sans-serif" font-size="14" textLength="70">: datetime</text><text x="28" y="1042.691" fill="#D9B8FF" font-family="sans-serif" font-size="14" font-weight="bold" textLength="71">message</text><text x="99" y="1042.691" fill="#D9B8FF" font-family="sans-serif" font-size="14" textLength="48">: string</text><text x="28" y="1068.988" fill="#D9B8FF" font-family="sans-serif" font-size="14" font-weight="bold" textLength="55">reason</text><text x="83" y="1068.988" fill="#D9B8FF" font-family="sans-serif" font-size="14" textLength="48">: string</text><text x="28" y="1095.285" fill="#D9B8FF" font-family="sans-serif" font-size="14" font-weight="bold" textLength="49">status</text><text x="77" y="1095.285" fill="#D9B8FF" font-family="sans-serif" font-size="14" textLength="48">: string</text><text x="28" y="1121.582" fill="#D9B8FF" font-family="sans-serif" font-size="14" font-weight="bold" textLength="35">type</text><text x="63" y="1121.582" fill="#D9B8FF" font-family="sans-serif" font-size="14" textLength="48">: string</text><rect width="239" height="126.68" x="101.5" y="438.76" fill="#3D176E" rx="2.5" ry="2.5" style="stroke:#000d19;stroke-width:.5"/><circle cx="126.85" cy="458.654" r="11" fill="#ADD1B2" style="stroke:#181818;stroke-width:1"/><path d="M129.819 464.295q-.578.297-1.219.438-.64.156-1.344.156-2.5 0-3.828-1.64-1.312-1.657-1.312-4.782t1.312-4.781q1.328-1.656 3.828-1.656.703 0 1.344.156.656.156 1.219.453v2.719q-.625-.579-1.219-.844-.594-.281-1.219-.281-1.344 0-2.031 1.078-.687 1.062-.687 3.156t.687 3.172q.688 1.062 2.031 1.062.625 0 1.219-.265.594-.281 1.219-.86z"/><text x="148.15" y="464.54" fill="#D9B8FF" font-family="Helvetica" font-size="17" textLength="174">kubernetes_resource</text><path d="M102.5 478.549h237" style="stroke:#000d19;stroke-width:.5"/><text x="112.5" y="500.544" fill="#D9B8FF" font-family="sans-serif" font-size="14" font-weight="bold" textLength="46">labels</text><text x="158.5" y="500.544" fill="#D9B8FF" font-family="sans-serif" font-size="14" textLength="171">: dictionary[string, string]</text><text x="112.5" y="526.841" fill="#D9B8FF" font-family="sans-serif" font-size="14" font-weight="bold" textLength="90">namespace</text><text x="202.5" y="526.841" fill="#D9B8FF" font-family="sans-serif" font-size="14" textLength="48">: string</text><text x="112.5" y="553.138" fill="#D9B8FF" font-family="sans-serif" font-size="14" font-weight="bold" textLength="138">resource_version</text><text x="250.5" y="553.138" fill="#D9B8FF" font-family="sans-serif" font-size="14" textLength="48">: string</text><rect width="227" height="310.758" x="107.5" y="7" fill="#3D176E" rx="2.5" ry="2.5" style="stroke:#000d19;stroke-width:.5"/><circle cx="176.25" cy="26.895" r="11" fill="#ADD1B2" style="stroke:#181818;stroke-width:1"/><path d="M179.219 32.535q-.578.297-1.219.438-.64.156-1.344.156-2.5 0-3.828-1.64-1.312-1.657-1.312-4.782t1.312-4.781q1.328-1.656 3.828-1.656.703 0 1.344.156.656.156 1.219.453v2.719q-.625-.578-1.219-.844-.594-.281-1.219-.281-1.344 0-2.031 1.078-.687 1.062-.687 3.156t.687 3.172q.688 1.062 2.031 1.062.625 0 1.219-.265.594-.281 1.219-.86z"/><text x="201.75" y="32.78" fill="#D9B8FF" font-family="Helvetica" font-size="17" textLength="71">resource</text><path d="M108.5 46.789h225" style="stroke:#000d19;stroke-width:.5"/><text x="118.5" y="68.784" fill="#D9B8FF" font-family="sans-serif" font-size="14" font-weight="bold" textLength="29">age</text><text x="147.5" y="68.784" fill="#D9B8FF" font-family="sans-serif" font-size="14" textLength="66">: duration</text><text x="118.5" y="95.081" fill="#D9B8FF" font-family="sans-serif" font-size="14" font-weight="bold" textLength="43">atime</text><text x="161.5" y="95.081" fill="#D9B8FF" font-family="sans-serif" font-size="14" textLength="70">: datetime</text><text x="118.5" y="121.378" fill="#D9B8FF" font-family="sans-serif" font-size="14" font-weight="bold" textLength="43">ctime</text><text x="161.5" y="121.378" fill="#D9B8FF" font-family="sans-serif" font-size="14" textLength="70">: datetime</text><text x="118.5" y="147.675" fill="#D9B8FF" font-family="sans-serif" font-size="14" font-weight="bold" textLength="14">id</text><text x="132.5" y="147.675" fill="#D9B8FF" font-family="sans-serif" font-size="14" textLength="48">: string</text><text x="118.5" y="173.972" fill="#D9B8FF" font-family="sans-serif" font-size="14" font-weight="bold" textLength="33">kind</text><text x="151.5" y="173.972" fill="#D9B8FF" font-family="sans-serif" font-size="14" textLength="48">: string</text><text x="118.5" y="200.269" fill="#D9B8FF" font-family="sans-serif" font-size="14" font-weight="bold" textLength="90">last_access</text><text x="208.5" y="200.269" fill="#D9B8FF" font-family="sans-serif" font-size="14" textLength="66">: duration</text><text x="118.5" y="226.565" fill="#D9B8FF" font-family="sans-serif" font-size="14" font-weight="bold" textLength="90">last_update</text><text x="208.5" y="226.565" fill="#D9B8FF" font-family="sans-serif" font-size="14" textLength="66">: duration</text><text x="118.5" y="252.862" fill="#D9B8FF" font-family="sans-serif" font-size="14" font-weight="bold" textLength="48">mtime</text><text x="166.5" y="252.862" fill="#D9B8FF" font-family="sans-serif" font-size="14" textLength="70">: datetime</text><text x="118.5" y="279.159" fill="#D9B8FF" font-family="sans-serif" font-size="14" font-weight="bold" textLength="43">name</text><text x="161.5" y="279.159" fill="#D9B8FF" font-family="sans-serif" font-size="14" textLength="48">: string</text><text x="118.5" y="305.456" fill="#D9B8FF" font-family="sans-serif" font-size="14" font-weight="bold" textLength="34">tags</text><text x="152.5" y="305.456" fill="#D9B8FF" font-family="sans-serif" font-size="14" textLength="171">: dictionary[string, string]</text><path fill="none" d="M221 760.92v53.32" style="stroke:#ffaf37;stroke-width:2"/><path fill="#FFAF37" d="m221 820.24 4-9-4 4-4-4z" style="stroke:#ffaf37;stroke-width:2"/><path fill="none" d="M221 583.67v102.54m0-120.54-6 18h12zm0 329.38v53.38" style="stroke:#ffaf37;stroke-width:2"/><path fill="#FFAF37" d="m221 954.43 4-9-4 4-4-4z" style="stroke:#ffaf37;stroke-width:2"/><path fill="none" d="M221 335.9v102.42m0-120.42-6 18h12z" style="stroke:#ffaf37;stroke-width:2"/></svg>
